X: 24578
T: Lusignac
R: waltz
M: 3/4
K: Bminor
|:F Bc|d2 ed cA|F3 F B{B}c|df af ed|G3 G de|
fd ef e2|b2 ef ed|dB cd cB|~^A3 F Bc|
dc ed cA|F3 F B{B}c|df af ed|G3 G de|
fd ef ed|d/c/B cd cB|F^A ce dc|1 ~B3:|2 Bcd||
|:f bc'|d'4 c'd'|c'2 b3b|ab a2 g2|f6|
[1 fe ed dc|ed cd ef|gf ed cB|^Ac e:|
[2 fe ed dc|ed dc cB|d2 cB Bc|^A3||

